X:0
T:Grateful Bed, The
M:C|
C:© Paul Gitlitz 2008
R:Reel
K:D
"C"=cegb "D"a3g|"D"fadf "G"BdGB|"C"=cegb "D"a3g|"D"faef "G"d2d^c|!
"C"=cegb "D"a3g|"D"fadf "G"BdGB|"C"=cgec "G"BdGB|1"Am"=cBAG "D"F2d^c:|2"Am"=cBAG "D"F3G|!
|:"D"ADFD ADFD|"G"BDGD BDGD|"Am"=ceBd ABGA|"D"FGEF D2FG|!
"D"ADFD ADFD|"G"BDGD BDGD|"C"=cgec "G"BdGB|1"Am"=cBAG "D"F2FG:|2"Am"=cBAG "D"FAd^c|]
